layout/admin/dist/assets/admin/img/icons/settings.svg

<svg width="20" height="22" viewBox="0 0 20 22" fill="none" xmlns="http://www.w3.org/2000/svg">
<path d="M17.6459 11.7868C17.6887 11.4655 17.7101 11.1336 17.7101 10.7802C17.7101 10.4375 17.6887 10.0949 17.6352 9.7736L19.809 8.08165C19.9027 8.00444 19.9667 7.89714 19.9901 7.77803C20.0136 7.65892 19.995 7.53537 19.9375 7.42843L17.8815 3.87319C17.8209 3.76564 17.7243 3.68298 17.6087 3.63986C17.493 3.59674 17.3659 3.59594 17.2497 3.6376L14.6903 4.66562C14.1549 4.2587 13.5874 3.91603 12.9556 3.65902L12.57 0.939053C12.5511 0.816473 12.4888 0.704758 12.3945 0.624197C12.3002 0.543635 12.1801 0.49957 12.056 0.500003H7.94396C7.68696 0.500003 7.48349 0.682048 7.44066 0.939053L7.05515 3.65902C6.42335 3.91603 5.84509 4.26941 5.32037 4.66562L2.76103 3.6376C2.52544 3.55194 2.25773 3.6376 2.12922 3.87319L0.0838939 7.42843C-0.0446085 7.65331 -0.00177447 7.93173 0.212396 8.08165L2.38623 9.7736C2.33269 10.0949 2.28985 10.4482 2.28985 10.7802C2.28985 11.1122 2.31127 11.4655 2.36481 11.7868L0.190979 13.4788C0.0973052 13.556 0.0332999 13.6633 0.00986844 13.7824C-0.0135631 13.9015 0.00502903 14.025 0.0624769 14.132L2.11852 17.6872C2.24702 17.9228 2.51473 17.9978 2.75032 17.9228L5.30966 16.8948C5.84509 17.3017 6.41264 17.6444 7.04444 17.9014L7.42995 20.6213C7.48349 20.8783 7.68696 21.0604 7.94396 21.0604H12.056C12.313 21.0604 12.5272 20.8783 12.5593 20.6213L12.9448 17.9014C13.5766 17.6444 14.1549 17.3017 14.6796 16.8948L17.239 17.9228C17.4746 18.0085 17.7423 17.9228 17.8708 17.6872L19.9268 14.132C20.0553 13.8964 20.0018 13.6287 19.7983 13.4788L17.6459 11.7868ZM10 14.6353C7.87971 14.6353 6.14493 12.9005 6.14493 10.7802C6.14493 8.65991 7.87971 6.92512 10 6.92512C12.1203 6.92512 13.8551 8.65991 13.8551 10.7802C13.8551 12.9005 12.1203 14.6353 10 14.6353Z" fill="white"/>
</svg>

<svg width="20" height="22" viewBox="0 0 20 22" fill="none" xmlns="http://www.w3.org/2000/svg"><path d="M17.646 11.787c.043-.322.064-.653.064-1.007a6.19 6.19 0 00-.075-1.006l2.174-1.692a.524.524 0 00.128-.654l-2.056-3.555a.523.523 0 00-.631-.235l-2.56 1.028a7.564 7.564 0 00-1.734-1.007L12.57.939A.518.518 0 0012.056.5H7.944a.507.507 0 00-.503.44l-.386 2.719c-.632.257-1.21.61-1.735 1.007L2.761 3.638a.511.511 0 00-.632.235L.084 7.428c-.129.225-.086.504.128.654l2.174 1.692a6.285 6.285 0 00-.096 1.006c0 .332.021.686.075 1.007L.19 13.479a.525.525 0 00-.129.653l2.057 3.555c.128.236.396.31.631.236l2.56-1.028c.535.407 1.103.75 1.734 1.006l.386 2.72c.053.257.257.44.514.44h4.112a.5.5 0 00.503-.44l.386-2.72c.632-.257 1.21-.6 1.735-1.006l2.559 1.028a.51.51 0 00.632-.236l2.056-3.555c.128-.236.075-.503-.129-.653l-2.152-1.692zM10 14.635a3.866 3.866 0 01-3.855-3.855A3.866 3.866 0 0110 6.925a3.866 3.866 0 013.855 3.855A3.866 3.866 0 0110 14.635z" fill="#fff"/></svg>
